icons/i18n.svg

<svg xmlns="http://www.w3.org/2000/svg" xml:space="preserve" fill-rule="evenodd" stroke-linejoin="round" stroke-miterlimit="1.414" clip-rule="evenodd" viewBox="0 0 24 24"><path fill="#7986cb" d="M11 1H3c-1.1 0-2 .9-2 2v12l3-3h5v-1c0-2.2 1.79-4 4-4V3c0-1.1-.9-2-2-2m0 3H9.5c-.34 1.19-.96 2.3-1.82 3.26l-.02.02 1.26 1.25-.37 1.01L7 8l-2.5 2.5-.69-.73 2.53-2.49A8.6 8.6 0 0 1 4.86 5h.99c.31.6.69 1.17 1.15 1.68A7.7 7.7 0 0 0 8.57 4H3V3h3.5V2h1v1H11zm10 5h-8c-1.1 0-2 .9-2 2v7c0 1.1.9 2 2 2h7l3 3V11c0-1.1-.9-2-2-2m-1.37 10-.85-2.25h-3.56L14.38 19h-1.5l3.37-9h1.5l3.38 9zM17 12l1.22 3.25h-2.43z" data-iconColor="i18n"/></svg>

<!--
  - The MIT License (MIT)
  -
  - Copyright (c) 2015-2024 Elior "Mallowigi" Boukhobza
  -
  - Permission is hereby granted, free of charge, to any person obtaining a copy
  - of this software and associated documentation files (the "Software"), to deal
  - in the Software without restriction, including without limitation the rights
  - to use, copy, modify, merge, publish, distribute, sublicense, and/or sell
  - copies of the Software, and to permit persons to whom the Software is
  - furnished to do so, subject to the following conditions:
  -
  - The above copyright notice and this permission notice shall be included in all
  - copies or substantial portions of the Software.
  -
  - THE SOFTWARE IS PROVIDED "AS IS", WITHOUT WARRANTY OF ANY KIND, EXPRESS OR
  - IMPLIED, INCLUDING BUT NOT LIMITED TO THE WARRANTIES OF MERCHANTABILITY,
  - FITNESS FOR A PARTICULAR PURPOSE AND NONINFRINGEMENT. IN NO EVENT SHALL THE
  - AUTHORS OR COPYRIGHT HOLDERS BE LIABLE FOR ANY CLAIM, DAMAGES OR OTHER
  - LIABILITY, WHETHER IN AN ACTION OF CONTRACT, TORT OR OTHERWISE, ARISING FROM,
  - OUT OF OR IN CONNECTION WITH THE SOFTWARE OR THE USE OR OTHER DEALINGS IN THE
  - SOFTWARE.
  -
  -->

<svg  clip-rule="evenodd" fill-rule="evenodd" stroke-linejoin="round" stroke-miterlimit="1.4142" version="1.1"
     viewBox="0 0 24 24" width="16px" height="16px" xml:space="preserve" xmlns="http://www.w3.org/2000/svg">
    <path fill="#7986cb" data-iconColor="i18n"
          d="M11 1H3C1.9 1 1 1.9 1 3V15L4 12H9V11C9 8.8 10.79 7 13 7V3C13 1.9 12.1 1 11 1M11 4L9.5 4C9.16 5.19 8.54 6.3 7.68 7.26L7.66 7.28L8.92 8.53L8.55 9.54L7 8L4.5 10.5L3.81 9.77L6.34 7.28C5.72 6.59 5.22 5.82 4.86 5H5.85C6.16 5.6 6.54 6.17 7 6.68C7.72 5.88 8.24 4.97 8.57 4L3 4V3H6.5V2H7.5V3H11V4M21 9H13C11.9 9 11 9.9 11 11V18C11 19.1 11.9 20 13 20H20L23 23V11C23 9.9 22.1 9 21 9M19.63 19L18.78 16.75H15.22L14.38 19H12.88L16.25 10H17.75L21.13 19H19.63M17 12L18.22 15.25H15.79L17 12Z"/>
</svg>
